X:609
T: O FREDA UEBER FREDA
N: E1945
O: Europa, Mitteleuropa, Deutschland, Schlesien, Oppeln
R: geistlich, Fest - Lied, Weihnachten
M: 4/4
L: 1/8
K: F
C2 | F2A2c2de | f4c2
c2 | d2c2B2A2 | G4z2
C2 | F2A2c2de | f4c2
c2 | d2c2B2A2 | G4z2
F2 | A2A2c2c2 | B4A2
F2 | A2A2B2AB | c4z2
F2 | F2A2c2de | f4c2
B2 | A2F2G2E2 | F4z2

